X: 133026
T: The GOBBIE O
Q: "Scotch Jig."
R: Jig.
%R: jig
B: James Kerr "Merry Melodies" v.1 p.33 s.0 #26
Z: 2016 John Chambers <jc:trillian.mit.edu>
M: 6/8
L: 1/8
K: Am
uB |\
vc2uA- AcA | vE2vA uA2uc | B2G- GBc | dBG GAB |\
c2A- AcA | E2A A2g | edc BAG | E2A A2 :|\
uE |\
vA2vB uc2ud | e2^f g2e | ^faf g2e | dBG GAB |
A2B c2d | e2^f g2f | edc BAG | E2A A2 ||\
uE |\
vA2vB uc2ud | e2^f g2e | ^faf g2e | dBG GAB |\
c2c- cBA | Bcd e^fg | edc BAG | E2A A2 |]

%%sep 1 1 500
%%sep 1 1 500

